X: 1
T: Hole in the Hedge
M: 6/8
L: 1/8
K: D
|: D2 F FEF | AFE F2 E | D2 F ~F3 | AFD E2 F |
| D2 F FEF | AFA d2 A | def edB |1 AFD EFE : |2 AFD EFA ||
|: d2 f edB | AFA ABc | d2 f edB | AFD E2 F |
| d2 f edB | AFA ABc | dcd BdB |1 AFD EFA :|2 AFD EFE ||
